dist/img/icons/specialty/2.svg

<svg width="64" height="64" viewBox="0 0 64 64" fill="none" xmlns="http://www.w3.org/2000/svg">
<path d="M31.9941 0C28.468 0.022625 25.0551 1.26487 22.384 3.498C19.7461 5.7035 17.934 8.77938 17.2814 12.1594C16.4689 16.3674 22.9895 17.6364 23.8574 13.4774C24.6759 9.5545 28.1841 6.77125 32.2014 6.87038C34.5113 6.92488 36.7196 7.96738 38.2603 9.73063C39.0575 10.6436 40.4696 9.40975 39.6723 8.497C37.7866 6.33887 35.0798 5.06275 32.2456 4.99587C27.3213 4.87575 23.0253 8.28613 22.022 13.0944C21.6401 14.9244 18.7686 14.3472 19.1225 12.5149C19.6935 9.55737 21.279 6.866 23.5869 4.9365C25.9245 2.982 28.9145 1.89475 32.0001 1.875C39.2349 1.875 45.1208 7.76087 45.1208 14.9955V56.8099C45.1208 59.7406 42.7364 62.125 39.8056 62.125H24.1946C21.2639 62.125 18.8795 59.7408 18.8795 56.81V30.694C18.8795 27.7633 21.2639 25.3789 24.1946 25.3789H32.0001C34.7684 25.3789 37.3581 24.288 39.2926 22.3075C41.2265 20.3276 42.2555 17.7113 42.1904 14.9409C42.1786 14.4374 42.1285 13.93 42.0414 13.433C41.8323 12.2395 39.9853 12.5625 40.1945 13.7568C40.2655 14.1616 40.3065 14.5749 40.316 14.9849C40.3693 17.2465 39.5295 19.3818 37.9515 20.9975C36.3728 22.6139 34.2593 23.504 32.0004 23.504H24.195C20.2303 23.504 17.0049 26.7295 17.0049 30.6941V56.81C17.0049 60.7746 20.2304 64 24.195 64H39.806C43.7708 64 46.9961 60.7745 46.9961 56.8099V14.9955C46.9958 6.72687 40.2686 0 31.9941 0Z" fill="#F1B08D"/>
<path d="M22.8008 48.4337C22.2829 48.4337 21.8633 48.8533 21.8633 49.3712V54.1611C21.8633 55.3672 22.8447 56.3486 24.0508 56.3486H39.949C41.1552 56.3486 42.1365 55.3672 42.1365 54.1611V38.2629C42.1365 37.0568 41.1552 36.0754 39.949 36.0754H24.0508C22.8447 36.0754 21.8633 37.0568 21.8633 38.2629V44.3769C21.8633 45.5891 23.7383 45.5891 23.7383 44.3769V38.2629C23.7383 38.0906 23.8784 37.9504 24.0508 37.9504H39.949C40.1214 37.9504 40.2615 38.0906 40.2615 38.2629V54.1612C40.2615 54.3336 40.1214 54.4737 39.949 54.4737H24.0508C23.8784 54.4737 23.7383 54.3336 23.7383 54.1612V49.3712C23.7383 48.8533 23.3187 48.4337 22.8008 48.4337Z" fill="#F1B08D"/>
<path d="M27.1255 40.0297C26.6076 40.0297 26.188 40.4493 26.188 40.9672V51.4568C26.188 52.6689 28.063 52.6689 28.063 51.4568V47.1495H35.9375V51.4568C35.9375 52.6689 37.8125 52.6689 37.8125 51.4568V40.9672C37.8125 39.755 35.9375 39.755 35.9375 40.9672V45.2745H28.063V40.9672C28.063 40.4494 27.6434 40.0297 27.1255 40.0297Z" fill="#F1B08D"/>
<path d="M25.3368 32.1863C24.1303 32.1863 24.1283 34.0613 25.3368 34.0613C26.5433 34.0613 26.5453 32.1863 25.3368 32.1863Z" fill="#F1B08D"/>
<path d="M29.7792 32.1863C28.5727 32.1863 28.5707 34.0613 29.7792 34.0613C30.9857 34.0613 30.9877 32.1863 29.7792 32.1863Z" fill="#F1B08D"/>
<path d="M34.2211 32.1863C33.0146 32.1863 33.0126 34.0613 34.2211 34.0613C35.4276 34.0613 35.4296 32.1863 34.2211 32.1863Z" fill="#F1B08D"/>
<path d="M38.6634 32.1863C37.4569 32.1863 37.4549 34.0613 38.6634 34.0613C39.8698 34.0613 39.8718 32.1863 38.6634 32.1863Z" fill="#F1B08D"/>
</svg>

<svg width="64" height="64" fill="none" xmlns="http://www.w3.org/2000/svg"><path d="M31.994 0c-3.526.023-6.939 1.265-9.61 3.498a15.036 15.036 0 00-5.103 8.661c-.812 4.208 5.709 5.477 6.576 1.318a8.311 8.311 0 018.344-6.607 8.338 8.338 0 016.06 2.86c.796.914 2.209-.32 1.411-1.233a10.217 10.217 0 00-7.426-3.501 10.184 10.184 0 00-10.224 8.098c-.382 1.83-3.253 1.253-2.9-.58a13.155 13.155 0 014.465-7.577C25.924 2.981 28.915 1.894 32 1.874c7.235 0 13.12 5.886 13.12 13.12V56.81a5.321 5.321 0 01-5.314 5.315H24.195a5.321 5.321 0 01-5.316-5.315V30.694a5.321 5.321 0 015.316-5.315H32c2.768 0 5.358-1.091 7.293-3.072a10.12 10.12 0 002.897-7.366 10.14 10.14 0 00-.149-1.508c-.209-1.194-2.056-.87-1.846.324.07.405.111.818.121 1.228a8.26 8.26 0 01-2.364 6.012A8.255 8.255 0 0132 23.505h-7.805c-3.965 0-7.19 3.226-7.19 7.19V56.81a7.198 7.198 0 007.19 7.19h15.611a7.198 7.198 0 007.19-7.19V14.995C46.996 6.727 40.27 0 31.994 0z" fill="#F1B08D"/><path d="M22.8 48.434a.937.937 0 00-.937.937v4.79a2.19 2.19 0 002.188 2.188h15.898a2.19 2.19 0 002.188-2.188V38.263a2.19 2.19 0 00-2.188-2.188H24.051a2.19 2.19 0 00-2.188 2.188v6.114c0 1.212 1.875 1.212 1.875 0v-6.114c0-.172.14-.313.313-.313h15.898c.172 0 .313.14.313.313V54.16c0 .173-.14.313-.313.313H24.051a.313.313 0 01-.313-.313v-4.79a.937.937 0 00-.937-.937z" fill="#F1B08D"/><path d="M27.125 40.03a.937.937 0 00-.937.937v10.49c0 1.212 1.875 1.212 1.875 0V47.15h7.875v4.307c0 1.212 1.874 1.212 1.874 0v-10.49c0-1.212-1.874-1.212-1.874 0v4.308h-7.875v-4.308a.937.937 0 00-.938-.937zm-1.788-7.844c-1.207 0-1.209 1.875 0 1.875 1.206 0 1.208-1.875 0-1.875zm4.443 0c-1.207 0-1.21 1.875 0 1.875 1.206 0 1.208-1.875 0-1.875zm4.441 0c-1.206 0-1.208 1.875 0 1.875 1.207 0 1.209-1.875 0-1.875zm4.442 0c-1.206 0-1.208 1.875 0 1.875 1.207 0 1.209-1.875 0-1.875z" fill="#F1B08D"/></svg>
